X:2785
T:Cecil McEachern's Jig
M:6/8
L:1/8
C:Cecil McEachern
R:Jig
Z:<cfalt@trytel.com> www.trytel.com/~cfalt/Fiddle/CFtunes1.abc
K:D
F/2G/2|"D"ABA "A7"GFE|"D"DFA d2f|"A7"Ace g2a|"D"Adf a2F/2G/2|!
ABA "A7"GFE|"D"DFA d2f|"A7"Ace gac|"D"d3 d2:|!
|:a|"A7"g2a e2g|"D"f2a d2f|"A7"e2g "F#7"c2e|"Bm"d2f B2c|!
"E7"d2e B2d|"A"c2e A2c|"E7"dB^G EFG|"A"A3 A2:|


